home-sound-out-outline.svg

<svg  viewBox="0 0 24 24" fill="currentColor"><path  d="M2.4038 7.01172C2.47451 4.39542 4.45441 2.41552 7 2.41552V1.00131C3.53517 0.9306 0.848167 3.61761 0.989589 7.01172L2.4038 7.01172Z M7 5.38537V3.97116C5.23223 4.04187 3.95944 5.31466 3.95944 7.01172H5.37365C5.51507 6.16319 6.15147 5.52679 7 5.38537Z M17 2.41552C19.5456 2.41552 21.5255 4.39542 21.5962 7.01172L23.0104 7.01172C23.1518 3.61761 20.4648 0.9306 17 1.00131V2.41552Z M17 3.97116V5.38537C17.8485 5.52679 18.4849 6.16319 18.6263 7.01172H20.0406C20.0406 5.31466 18.7678 4.04187 17 3.97116Z M19 20V12H22L12 3L2 12H5V20H19ZM12 5.7L17 10.2V18H7V10.2L12 5.7Z"/></svg>

<svg fill="currentColor" viewBox="0 0 24 24"><path d="M2.404 7.012C2.474 4.395 4.454 2.416 7 2.416V1C3.535.931.848 3.618.99 7.011zM7 5.385V3.971c-1.768.07-3.04 1.344-3.04 3.04h1.414A1.95 1.95 0 0 1 7 5.386m10-2.97c2.546 0 4.526 1.98 4.596 4.597h1.414C23.152 3.618 20.465.93 17 1.002zm0 1.556v1.414a1.95 1.95 0 0 1 1.626 1.627h1.415c0-1.697-1.273-2.97-3.041-3.04M19 20v-8h3L12 3 2 12h3v8zM12 5.7l5 4.5V18H7v-7.8z"/></svg>
